app/assets/images/heroicons/solid/strikethrough.svg

<svg width="24" height="24" viewBox="0 0 24 24" fill="none" xmlns="http://www.w3.org/2000/svg">
<path fill-rule="evenodd" clip-rule="evenodd" d="M9.65664 4.72817C8.57127 5.11272 7.89072 5.78492 7.67823 6.57798C7.46376 7.37841 7.72395 8.31122 8.48795 9.1939C9.23446 10.0564 10.4173 10.8061 11.8758 11.1969C11.946 11.2157 12.0162 11.2335 12.0862 11.2503H20.2494C20.6636 11.2503 20.9994 11.5861 20.9994 12.0003C20.9994 12.4145 20.6636 12.7503 20.2494 12.7503H12.0098C12.0032 12.7504 11.9965 12.7504 11.9899 12.7503H3.74951C3.3353 12.7503 2.99951 12.4145 2.99951 12.0003C2.99951 11.5861 3.3353 11.2503 3.74951 11.2503H8.5287C8.08448 10.9248 7.68959 10.5635 7.35381 10.1756C6.37221 9.04154 5.84858 7.61084 6.22935 6.18974C6.60649 4.78219 7.75713 3.80977 9.15573 3.31425C10.5581 2.81739 12.283 2.76477 14.0111 3.22781C15.1181 3.52446 16.1141 4.00238 16.9399 4.60148C17.2751 4.84472 17.3497 5.31371 17.1065 5.64899C16.8633 5.98427 16.3943 6.05888 16.059 5.81563C15.3881 5.32888 14.5605 4.92799 13.6228 4.67673C12.1501 4.2821 10.7382 4.34497 9.65664 4.72817ZM16.1899 14.3595C16.5438 14.1442 17.0052 14.2567 17.2204 14.6106C17.8121 15.5836 18.0657 16.7043 17.7692 17.8106C17.3921 19.2182 16.2415 20.1906 14.8429 20.6861C13.4405 21.183 11.7156 21.2356 9.98753 20.7726C8.27574 20.3139 6.81996 19.4186 5.85377 18.3024C5.58268 17.9892 5.61681 17.5155 5.92999 17.2444C6.24318 16.9733 6.71682 17.0075 6.98791 17.3207C7.73442 18.1831 8.91722 18.9328 10.3758 19.3236C11.8485 19.7183 13.2604 19.6554 14.3419 19.2722C15.4273 18.8877 16.1079 18.2155 16.3204 17.4224C16.4888 16.7936 16.366 16.0925 15.9388 15.39C15.7236 15.0361 15.836 14.5747 16.1899 14.3595Z" fill="black"/>
</svg>

<svg xmlns="http://www.w3.org/2000/svg" viewBox="0 0 24 24" fill="currentColor" aria-hidden="true" data-slot="icon">
  <path fill-rule="evenodd" d="M9.657 4.728c-1.086.385-1.766 1.057-1.979 1.85-.214.8.046 1.733.81 2.616.746.862 1.93 1.612 3.388 2.003.07.019.14.037.21.053h8.163a.75.75 0 0 1 0 1.5h-8.24a.66.66 0 0 1-.02 0H3.75a.75.75 0 0 1 0-1.5h4.78a7.108 7.108 0 0 1-1.175-1.074C6.372 9.042 5.849 7.61 6.229 6.19c.377-1.408 1.528-2.38 2.927-2.876 1.402-.497 3.127-.55 4.855-.086A8.937 8.937 0 0 1 16.94 4.6a.75.75 0 0 1-.881 1.215 7.437 7.437 0 0 0-2.436-1.14c-1.473-.394-2.885-.331-3.966.052Zm6.533 9.632a.75.75 0 0 1 1.03.25c.592.974.846 2.094.55 3.2-.378 1.408-1.529 2.38-2.927 2.876-1.402.497-3.127.55-4.855.087-1.712-.46-3.168-1.354-4.134-2.47a.75.75 0 0 1 1.134-.982c.746.862 1.93 1.612 3.388 2.003 1.473.394 2.884.331 3.966-.052 1.085-.384 1.766-1.056 1.978-1.85.169-.628.046-1.33-.381-2.032a.75.75 0 0 1 .25-1.03Z" clip-rule="evenodd"/>
</svg>
